X: 333
T: Jewish Bulgar
R: bulgar
O:
Q: 1/4=132
B: German Goldenshteyn "Shpilt klezmorimlach klingen zoln di gesalach" New York 2003 v.3 #33
Z: 2012 John Chambers <jc:trillian.mit.edu>
M: 2/4
L: 1/8
K: Em
|:\
B, E2 G | ^AB G2 | ^AB ^cB | ^AB G2 | ^c {e}d2 c | (~d^c) B^A | B4 | B4 |
^d e2 c | Bc A2 | ^AB cB | ^AB G2 | z F2 G | ^AG FE | F4 | B4 :|
|:\
E2 E2 | B, E3 | FG ~AG | ~AG FE | E2 E2 | B, E3 | AB cB | cB AE |
G2 G2 | A G3 |[1 G F2 F- | F4 | E2 E2 | F2E2 | ^DB,- B,2- | B,B,^C^D :|
[2 d=c c2- | c4 | B2 B2 | ^c2 ^d2 | e4- | e4 |]
